dist/assets/img/advantages/work.svg

<svg width="64" height="75" viewBox="0 0 64 75" fill="none" xmlns="http://www.w3.org/2000/svg">
<path d="M62.2422 58.7289H-9.63281C-9.99541 58.7289 -10.3432 58.8729 -10.5996 59.1293C-10.856 59.3857 -11 59.7335 -11 60.0961V64.9547C-10.9998 65.3172 -10.8557 65.6648 -10.5993 65.9212C-10.343 66.1775 -9.99535 66.3216 -9.63281 66.3219H62.2422C62.6048 66.3219 62.9525 66.1778 63.2089 65.9214C63.4653 65.665 63.6094 65.3173 63.6094 64.9547V60.0961C63.6095 59.9165 63.5742 59.7387 63.5055 59.5728C63.4368 59.4068 63.3361 59.2561 63.2092 59.1291C63.0822 59.0021 62.9314 58.9014 62.7655 58.8327C62.5996 58.7641 62.4218 58.7288 62.2422 58.7289ZM60.875 61.4633V63.5875H-8.26562V61.4633H60.875Z" fill="black"/>
<path d="M62.2422 71.875H-9.63281C-9.99541 71.875 -10.3432 72.019 -10.5996 72.2754C-10.856 72.5318 -11 72.8796 -11 73.2422C-11 73.6048 -10.856 73.9525 -10.5996 74.2089C-10.3432 74.4653 -9.99541 74.6094 -9.63281 74.6094H62.2422C62.6048 74.6094 62.9525 74.4653 63.2089 74.2089C63.4653 73.9525 63.6094 73.6048 63.6094 73.2422C63.6094 72.8796 63.4653 72.5318 63.2089 72.2754C62.9525 72.019 62.6048 71.875 62.2422 71.875Z" fill="black"/>
<path d="M5.05468 54.3133H5.13828C6.03504 54.3047 6.92087 54.1155 7.74289 53.757C8.56491 53.3985 9.30625 52.878 9.92265 52.2266L29.2445 31.9469L29.5805 32.2836C29.7074 32.4107 29.8581 32.5115 30.024 32.5803C30.1898 32.649 30.3677 32.6844 30.5473 32.6844C30.7268 32.6844 30.9047 32.649 31.0706 32.5803C31.2364 32.5115 31.3871 32.4107 31.514 32.2836L34.139 29.6586C34.7614 30.0296 35.4523 30.2709 36.1703 30.368C36.7562 30.4433 37.3008 30.7099 37.7195 31.1266L38.3281 31.7344C38.1489 32.2739 38.1233 32.8525 38.2539 33.4057C38.3845 33.9589 38.6664 34.4649 39.068 34.8672L42.5609 38.3602C42.8173 38.6164 43.1649 38.7603 43.5273 38.7603C43.8898 38.7603 44.2374 38.6164 44.4937 38.3602L53.8687 28.9852C53.9958 28.8583 54.0966 28.7076 54.1654 28.5417C54.2341 28.3758 54.2696 28.198 54.2696 28.0184C54.2696 27.8388 54.2341 27.661 54.1654 27.4951C54.0966 27.3292 53.9958 27.1785 53.8687 27.0516L50.382 23.5547C50.0988 23.27 49.7619 23.0442 49.3908 22.8906C49.0198 22.7369 48.6219 22.6583 48.2203 22.6594C47.8908 22.6591 47.5635 22.7119 47.2508 22.8157L46.643 22.2086C46.2257 21.7901 45.9592 21.2449 45.8851 20.6586C45.7322 19.4712 45.1914 18.3674 44.3469 17.5188L27.2281 0.400813C27.1012 0.27375 26.9505 0.172949 26.7846 0.104174C26.6187 0.0353992 26.4409 0 26.2613 0C26.0817 0 25.9039 0.0353992 25.738 0.104174C25.5721 0.172949 25.4214 0.27375 25.2945 0.400813L22.3102 3.38441C22.1062 3.58822 21.972 3.85131 21.9267 4.13603C21.8814 4.42075 21.9273 4.71251 22.0578 4.96956L22.1359 5.12581C22.9129 6.64631 23.1876 8.37411 22.9203 10.0606C22.653 11.7471 21.8575 13.3053 20.6484 14.511C20.5214 14.6379 20.4206 14.7886 20.3518 14.9545C20.283 15.1204 20.2476 15.2982 20.2476 15.4778C20.2476 15.6573 20.283 15.8352 20.3518 16.0011C20.4206 16.167 20.5214 16.3177 20.6484 16.4446L22.982 18.7782L20.4945 21.2649C20.2383 21.5212 20.0944 21.8689 20.0944 22.2313C20.0944 22.5937 20.2383 22.9413 20.4945 23.1977L20.6984 23.4016L0.418747 42.7235C-0.553437 43.6503 -1.22574 44.847 -1.51151 46.1594C-1.79727 47.4719 -1.68339 48.8398 -1.18455 50.0869C-0.685709 51.334 0.175227 52.4031 1.28728 53.1564C2.39933 53.9097 3.71151 54.3127 5.05468 54.3133ZM24.9219 4.63909L26.2609 3.30081L42.4117 19.45C42.8282 19.8693 43.095 20.414 43.1711 21C43.3218 22.1884 43.8629 23.293 44.7094 24.1407L46.0562 25.4883C46.1831 25.6154 46.3339 25.7162 46.4997 25.785C46.6656 25.8537 46.8435 25.8891 47.023 25.8891C47.2026 25.8891 47.3804 25.8537 47.5463 25.785C47.7122 25.7162 47.8629 25.6154 47.9898 25.4883C48.0508 25.4274 48.1334 25.3932 48.2195 25.3932C48.3057 25.3932 48.3883 25.4274 48.4492 25.4883L50.9758 28.0149L43.5305 35.4602L41.0039 32.9336C40.9434 32.8725 40.9095 32.7899 40.9095 32.7039C40.9095 32.6179 40.9434 32.5354 41.0039 32.4743C41.1309 32.3474 41.2317 32.1968 41.3005 32.0309C41.3692 31.8651 41.4046 31.6874 41.4046 31.5078C41.4046 31.3283 41.3692 31.1506 41.3005 30.9847C41.2317 30.8189 41.1309 30.6683 41.0039 30.5414L39.6555 29.1922C38.8067 28.3475 37.7026 27.8069 36.5148 27.6547C35.9293 27.5803 35.385 27.3137 34.9672 26.8969L23.4922 15.4172C24.6632 13.908 25.4125 12.115 25.6637 10.2214C25.9149 8.32776 25.6589 6.40139 24.9219 4.63909ZM32.0672 27.8633L30.5476 29.3836L23.3953 22.2313L24.9148 20.711L32.0672 27.8633ZM2.30468 44.7024L22.6328 25.3352L27.3109 30.0133L7.94531 50.3414C7.57943 50.7277 7.13946 51.0363 6.65167 51.2488C6.16389 51.4613 5.63828 51.5733 5.10625 51.5782C4.03409 51.575 3.00524 51.1547 2.2375 50.4063C1.86154 50.0302 1.5646 49.5827 1.36413 49.0901C1.16367 48.5976 1.06374 48.0699 1.07022 47.5381C1.0767 47.0064 1.18946 46.4813 1.40186 45.9938C1.61426 45.5062 1.92202 45.0661 2.30703 44.6992L2.30468 44.7024Z" fill="black"/>
</svg>

<svg width="64" height="75" fill="none" xmlns="http://www.w3.org/2000/svg"><path d="M62.242 58.729H-9.633A1.367 1.367 0 00-11 60.096v4.859a1.368 1.368 0 001.367 1.367h71.875a1.367 1.367 0 001.367-1.367v-4.859a1.366 1.366 0 00-1.367-1.367zm-1.367 2.734v2.124h-69.14v-2.124h69.14zm1.367 10.412H-9.633a1.367 1.367 0 100 2.734h71.875a1.367 1.367 0 000-2.734zM5.055 54.313h.083a6.676 6.676 0 004.785-2.086l19.322-20.28.335.337a1.366 1.366 0 001.934 0l2.625-2.625a5.374 5.374 0 002.031.709 2.68 2.68 0 011.55.759l.608.607a3.067 3.067 0 00.74 3.133l3.493 3.493a1.367 1.367 0 001.933 0l9.375-9.375a1.366 1.366 0 000-1.933l-3.487-3.497a3.036 3.036 0 00-2.162-.896c-.33 0-.657.053-.97.157l-.607-.607a2.67 2.67 0 01-.758-1.55 5.435 5.435 0 00-1.538-3.14L27.228.4a1.366 1.366 0 00-1.934 0L22.31 3.384a1.366 1.366 0 00-.252 1.586l.078.156a8.069 8.069 0 01-1.488 9.385 1.368 1.368 0 000 1.934l2.334 2.333-2.488 2.487a1.367 1.367 0 000 1.933l.204.204L.418 42.724a6.723 6.723 0 004.637 11.59zM24.922 4.64l1.339-1.338L42.41 19.45c.417.42.684.964.76 1.55a5.407 5.407 0 001.538 3.14l1.347 1.348a1.367 1.367 0 001.934 0 .325.325 0 01.46 0l2.526 2.527-7.445 7.445-2.527-2.526a.326.326 0 010-.46 1.367 1.367 0 000-1.933l-1.348-1.349a5.431 5.431 0 00-3.141-1.537 2.668 2.668 0 01-1.548-.758l-11.475-11.48a10.79 10.79 0 001.43-10.778zm7.145 23.224l-1.52 1.52-7.152-7.152 1.52-1.52 7.152 7.152zM2.305 44.703l20.328-19.368 4.678 4.678L7.945 50.341a3.96 3.96 0 01-2.839 1.237 4.127 4.127 0 01-2.869-1.172 3.988 3.988 0 01.07-5.707l-.002.003z" fill="#000"/></svg>
